img/dollar-square.svg

<svg width="32" height="32" viewBox="0 0 32 32" fill="none" xmlns="http://www.w3.org/2000/svg">
<path opacity="0.4" d="M21.586 2.66666H10.4127C5.55935 2.66666 2.66602 5.55999 2.66602 10.4133V21.5733C2.66602 26.44 5.55935 29.3333 10.4127 29.3333H21.5727C26.426 29.3333 29.3193 26.44 29.3193 21.5867V10.4133C29.3327 5.55999 26.4394 2.66666 21.586 2.66666Z" fill="#191A23"/>
<path d="M19.0135 16L17.0002 15.2933V10.7733H17.4802C18.5602 10.7733 19.4402 11.72 19.4402 12.88C19.4402 13.4267 19.8935 13.88 20.4402 13.88C20.9869 13.88 21.4402 13.4267 21.4402 12.88C21.4402 10.6133 19.6669 8.77333 17.4802 8.77333H17.0002V8C17.0002 7.45333 16.5469 7 16.0002 7C15.4535 7 15.0002 7.45333 15.0002 8V8.77333H14.1335C12.1602 8.77333 10.5469 10.44 10.5469 12.48C10.5469 14.8667 11.9335 15.6267 12.9869 16L15.0002 16.7067V21.2133H14.5202C13.4402 21.2133 12.5602 20.2667 12.5602 19.1067C12.5602 18.56 12.1069 18.1067 11.5602 18.1067C11.0135 18.1067 10.5602 18.56 10.5602 19.1067C10.5602 21.3733 12.3335 23.2133 14.5202 23.2133H15.0002V24C15.0002 24.5467 15.4535 25 16.0002 25C16.5469 25 17.0002 24.5467 17.0002 24V23.2267H17.8669C19.8402 23.2267 21.4535 21.56 21.4535 19.52C21.4402 17.12 20.0535 16.36 19.0135 16ZM13.6535 14.12C12.9735 13.88 12.5602 13.6533 12.5602 12.4933C12.5602 11.5467 13.2669 10.7867 14.1469 10.7867H15.0135V14.6L13.6535 14.12ZM17.8669 21.2267H17.0002V17.4133L18.3469 17.88C19.0269 18.12 19.4402 18.3467 19.4402 19.5067C19.4402 20.4533 18.7335 21.2267 17.8669 21.2267Z" fill="#191A23"/>
</svg>

<svg xmlns="http://www.w3.org/2000/svg" width="32" height="32" fill="none"><path fill="#191A23" d="M21.586 2.667H10.413c-4.854 0-7.747 2.893-7.747 7.746v11.16c0 4.867 2.893 7.76 7.747 7.76h11.16c4.853 0 7.746-2.893 7.746-7.746V10.413c.014-4.853-2.88-7.746-7.733-7.746" opacity=".4"/><path fill="#191A23" d="M19.014 16 17 15.293v-4.52h.48c1.08 0 1.96.947 1.96 2.107 0 .547.453 1 1 1s1-.453 1-1c0-2.267-1.773-4.107-3.96-4.107H17V8c0-.547-.453-1-1-1s-1 .453-1 1v.773h-.867c-1.973 0-3.586 1.667-3.586 3.707 0 2.387 1.386 3.147 2.44 3.52l2.013.707v4.506h-.48c-1.08 0-1.96-.946-1.96-2.106 0-.547-.453-1-1-1s-1 .453-1 1c0 2.266 1.774 4.106 3.96 4.106H15V24c0 .547.454 1 1 1 .547 0 1-.453 1-1v-.773h.867c1.973 0 3.586-1.667 3.586-3.707-.013-2.4-1.4-3.16-2.44-3.52m-5.36-1.88c-.68-.24-1.094-.467-1.094-1.627 0-.946.707-1.706 1.587-1.706h.867V14.6zm4.213 7.107H17v-3.814l1.347.467c.68.24 1.093.467 1.093 1.627 0 .946-.707 1.72-1.573 1.72"/></svg>
